X:1
T: Tell Her I Am
C:
R:Jig
Q:180
K:G
M:6/8
L:1/16
d2|:e2d2B2 G2A2B2|D2E2D2 G2A2B2|D2E2D2 c2B2A2|B2G2E2 E4d2|
e2d2B2 G2A2B2|D2E2D2 G2A2B2|A2G2E2 c2B2A2|B2G2G2 G4d2:|
|:Bcd2B2 d2e2f2|g2f2e2 d2B2G2|A2B2A2 A2G2A2|B2G2E2 E4d2|
B2c2d2 d2e2f2|g2f2e2 d2B2G2|A2G2E2 c2B2A2|1B2G2G2 G4d2:|2B2G2G2 G4||
